app/images/icons/instagram.svg

<svg width="24" height="24" viewBox="0 0 24 24" xmlns="http://www.w3.org/2000/svg">
<path d="M12.6479 20C12.5983 20 12.5486 20 12.4986 19.9998C11.3228 20.0026 10.2363 19.9728 9.17977 19.9084C8.21111 19.8495 7.3269 19.5148 6.62261 18.9405C5.94303 18.3864 5.47895 17.6371 5.24331 16.7138C5.03822 15.91 5.02735 15.1209 5.01694 14.3577C5.00938 13.8101 5.0016 13.1612 5 12.5014C5.0016 11.8387 5.00938 11.1899 5.01694 10.6423C5.02735 9.87916 5.03822 9.09009 5.24331 8.28614C5.47895 7.36283 5.94303 6.61358 6.62261 6.05945C7.3269 5.48519 8.21111 5.15045 9.17988 5.09151C10.2364 5.02731 11.3231 4.99733 12.5014 5.00019C13.6776 4.99767 14.7637 5.02731 15.8202 5.09151C16.7889 5.15045 17.6731 5.48519 18.3774 6.05945C19.0571 6.61358 19.521 7.36283 19.7567 8.28614C19.9618 9.08997 19.9726 9.87916 19.9831 10.6423C19.9906 11.1899 19.9985 11.8387 20 12.4986V12.5014C19.9985 13.1612 19.9906 13.8101 19.9831 14.3577C19.9726 15.1208 19.9619 15.9099 19.7567 16.7138C19.521 17.6371 19.0571 18.3864 18.3774 18.9405C17.6731 19.5148 16.7889 19.8495 15.8202 19.9084C14.8084 19.97 13.769 20 12.6479 20ZM12.4986 18.8279C13.6553 18.8306 14.7173 18.8015 15.749 18.7387C16.4815 18.6942 17.1166 18.4565 17.6368 18.0323C18.1177 17.6401 18.4489 17.099 18.6212 16.4241C18.7919 15.7549 18.8018 15.0365 18.8113 14.3417C18.8187 13.7977 18.8265 13.1534 18.8281 12.5C18.8265 11.8464 18.8187 11.2022 18.8113 10.6583C18.8018 9.9635 18.7919 9.24504 18.6212 8.57579C18.4489 7.90081 18.1177 7.35974 17.6368 6.96755C17.1166 6.54343 16.4815 6.30573 15.749 6.26121C14.7173 6.19839 13.6553 6.16943 12.5013 6.17195C11.3448 6.1692 10.2827 6.19839 9.25096 6.26121C8.51851 6.30573 7.88345 6.54343 7.36318 6.96755C6.88228 7.35974 6.55108 7.90081 6.37884 8.57579C6.20808 9.24504 6.19824 9.96339 6.18874 10.6583C6.1813 11.2027 6.17352 11.8473 6.17192 12.5014C6.17352 13.1525 6.1813 13.7973 6.18874 14.3417C6.19824 15.0365 6.20808 15.7549 6.37884 16.4241C6.55108 17.099 6.88228 17.6401 7.36318 18.0323C7.88345 18.4564 8.51851 18.6941 9.25096 18.7386C10.2827 18.8015 11.3451 18.8308 12.4986 18.8279ZM12.4706 16.1621C10.4514 16.1621 8.8084 14.5193 8.8084 12.5C8.8084 10.4807 10.4514 8.83786 12.4706 8.83786C14.49 8.83786 16.1329 10.4807 16.1329 12.5C16.1329 14.5193 14.49 16.1621 12.4706 16.1621ZM12.4706 10.0097C11.0975 10.0097 9.98032 11.1269 9.98032 12.5C9.98032 13.873 11.0975 14.9902 12.4706 14.9902C13.8439 14.9902 14.961 13.873 14.961 12.5C14.961 11.1269 13.8439 10.0097 12.4706 10.0097ZM16.5431 7.66598C16.0577 7.66598 15.6641 8.05943 15.6641 8.54489C15.6641 9.03035 16.0577 9.4238 16.5431 9.4238C17.0285 9.4238 17.422 9.03035 17.422 8.54489C17.422 8.05943 17.0285 7.66598 16.5431 7.66598Z" fill="#ECEBEB"/>
</svg>

<svg width="24" height="24" xmlns="http://www.w3.org/2000/svg"><path d="M12.65 20h-.15a52.13 52.13 0 0 1-3.32-.1 4.43 4.43 0 0 1-2.56-.96 4.1 4.1 0 0 1-1.38-2.23c-.2-.8-.21-1.59-.22-2.35A164.15 164.15 0 0 1 5 12.5l.02-1.86c0-.76.02-1.55.22-2.36.24-.92.7-1.67 1.38-2.22.7-.58 1.6-.91 2.56-.97A52.27 52.27 0 0 1 12.5 5a52.48 52.48 0 0 1 3.32.1 4.11 4.11 0 0 1 3.94 3.2c.2.79.21 1.58.22 2.34L20 12.5l-.02 1.86a9.85 9.85 0 0 1-.22 2.35c-.24.93-.7 1.68-1.38 2.23-.7.57-1.6.91-2.56.97a51.85 51.85 0 0 1-3.17.09Zm-.15-1.17a51.12 51.12 0 0 0 3.25-.1 2.96 2.96 0 0 0 2.87-2.31c.17-.67.18-1.38.2-2.08a161.14 161.14 0 0 0 0-3.68c-.02-.7-.03-1.42-.2-2.08a2.95 2.95 0 0 0-.98-1.61 3.23 3.23 0 0 0-1.9-.7 51.2 51.2 0 0 0-3.24-.1 51.07 51.07 0 0 0-3.25.1 2.96 2.96 0 0 0-2.87 2.32c-.17.65-.18 1.37-.2 2.07a161.54 161.54 0 0 0 0 3.68c.02.7.03 1.41.2 2.08.17.68.5 1.22.98 1.61.52.43 1.16.66 1.9.7 1.02.07 2.09.1 3.24.1Zm-.03-2.67a3.67 3.67 0 0 1-3.66-3.66 3.67 3.67 0 0 1 3.66-3.66 3.67 3.67 0 0 1 3.66 3.66 3.67 3.67 0 0 1-3.66 3.66Zm0-6.15a2.5 2.5 0 0 0-2.49 2.49 2.5 2.5 0 0 0 2.5 2.49 2.5 2.5 0 0 0 2.48-2.49 2.5 2.5 0 0 0-2.49-2.49Zm4.07-2.34a.88.88 0 1 0 0 1.75.88.88 0 0 0 0-1.75Z" fill="#ECEBEB"/></svg>
